plasma/desktoptheme/Arc-Color/icons/notification.svg

<svg xmlns="http://www.w3.org/2000/svg" width="22" height="22" version="1.1">
 <defs>
  <style id="current-color-scheme" type="text/css">
   .ColorScheme-Background {color:#2f343f; } .ColorScheme-ButtonBackground { color:#444a58; } .ColorScheme-Highlight { color:#5c87cc; } .ColorScheme-Text { color:#d3dae3; } .ColorScheme-NegativeText { color:#f44336; } .ColorScheme-PositiveText { color:#4caf50; } .ColorScheme-NeutralText { color:#ff9800; }
  </style>
 </defs>
 <path id="expander-bottom" style="fill:currentColor" class="ColorScheme-Text" d="m -18,23 2,-2 2,2 z"/>
 <path id="expander-top" style="fill:currentColor" class="ColorScheme-Text" d="m -18,17 2,2 2,-2 z"/>
 <path id="expander-right" style="fill:currentColor" class="ColorScheme-Text" d="m -13,18 -2,2 2,2 z"/>
 <path id="expander-left" style="fill:currentColor" class="ColorScheme-Text" d="m -19,18 2,2 -2,2 z"/>
 <g id="notification-empty" transform="translate(-18.0098,17.900391)">
  <rect style="opacity:0.001" width="22" height="22" x="40" y="-40"/>
  <path style="fill:currentColor" class="ColorScheme-Text" d="m 51,-37 a 8,8 0 0 0 -8,8 8,8 0 0 0 8,8 8,8 0 0 0 8,-8 8,8 0 0 0 -8,-8 z m 0,2 a 6,6 0 0 1 6,6 6,6 0 0 1 -6,6 6,6 0 0 1 -6,-6 6,6 0 0 1 6,-6 z"/>
 </g>
 <g id="notification-progress-active" transform="translate(-18,22)">
  <rect style="opacity:0.001" width="22" height="22" x="40" y="0"/>
  <path style="fill:currentColor" class="ColorScheme-Highlight" d="m 51,2.9999999 c -4.418278,0 -8,3.5817221 -8,8.0000001 0,4.418278 3.581722,8 8,8 4.418278,0 8,-3.581722 8,-8 0,-4.418278 -3.581722,-8.0000001 -8,-8.0000001 z"/>
 </g>
 <g id="notification-progress-inactive" transform="translate(-18,-40)">
  <rect style="opacity:0.001" width="22" height="22" x="40" y="40"/>
  <path style="opacity:0.35;fill:currentColor" class="ColorScheme-Text" d="m 51,43 c -4.418278,0 -8,3.581722 -8,8 0,4.418278 3.581722,8 8,8 4.418278,0 8,-3.581722 8,-8 0,-4.418278 -3.581722,-8 -8,-8 z"/>
 </g>
 <g id="notification-inactive">
  <rect style="opacity:0.001" width="22" height="22" x="0" y="0"/>
  <path style="fill:currentColor" class="ColorScheme-Text" d="m 11,3.0000001 c 0.55,0 1,0.45 1,1 0,0.03 0,0.07 -0.01,0.1 2.29,0.46 4.01,2.47 4.01,4.9 V 11 13.5 l 2,2 V 16 H 16 6 4 v -0.5 l 2,-2 V 9.0000001 c 0,-2.43 1.72,-4.44 4.01,-4.9 -0.01,-0.03 -0.01,-0.07 -0.01,-0.1 0,-0.55 0.45,-1 1,-1 z M 12.73,17 C 12.37,17.62 11.71,18 11,18 10.29,18 9.63,17.62 9.27,17 Z"/>
 </g>
 <g id="notification-active" transform="translate(0,22)">
  <rect style="opacity:0.001" width="22" height="22" x="0" y="0"/>
  <path style="fill:currentColor" class="ColorScheme-Text" d="M 14.15293,3.6992 C 11.93963,2.95143 9.44713,3.8357 8.23243,5.9394 L 5.98243,9.8359 3.25,10.5683 3,11.0019 l 1.73243,1.0001 8.6605,5 1.733,1 0.25,-0.434 -0.733,-2.732 1.25,-2.164 1,-1.7326 c 0.545,-0.943 0.731,-1.9837 0.633,-2.9863 -0.152,0.0241 -0.305,0.0488 -0.463,0.0488 -1.645,0 -3,-1.355 -3,-3 0,-0.4362 0.099,-0.8487 0.273,-1.2219 0,0 -0.181,-0.0801 -0.183,-0.0808 z M 7.06453,14.502 c 0,0.714 0.38,1.375 0.998,1.732 0.6183,0.356 1.3803,0.355 1.998,-0.002 z"/>
  <path style="fill:currentColor" class="ColorScheme-Highlight" d="m 19.06293,4.998 a 2,2 0 0 1 -2,2 2,2 0 0 1 -2,-2 2,2 0 0 1 2,-2 2,2 0 0 1 2,2 z"/>
 </g>
 <g id="notification-disabled" transform="translate(-0.0098,-22.099609)">
  <rect style="opacity:0.001" width="22" height="22" x="0" y="0"/>
  <path style="opacity:0.35;fill:currentColor" class="ColorScheme-Text" d="m 11,3 c -0.55,0 -1,0.45 -1,1 0,0.03 -2.344e-4,0.069609 0.0098,0.099609 -0.4968004,0.0998 -0.9591254,0.2854312 -1.3906254,0.5195312 L 16,12 V 11 9 C 16,6.57 14.280034,4.5596094 11.990234,4.0996094 12.000234,4.0696094 12,4.03 12,4 12,3.45 11.55,3 11,3 Z M 5.5,3.5 4,5 6.3066406,7.3066406 C 6.1126225,7.8349112 6,8.4018937 6,9 v 4.5 l -2,2 V 16 h 2 9 L 16.5,17.5 18,16 Z M 9.2695312,17 C 9.6295312,17.62 10.29,18 11,18 c 0.71,0 1.370469,-0.38 1.730469,-1 z"/>
 </g>
</svg>

<?xml version="1.0" encoding="UTF-8"?>
<svg width="22" height="22" version="1.1" xmlns="http://www.w3.org/2000/svg">
 <defs>
  <style id="current-color-scheme" type="text/css">.ColorScheme-Background {color:#2f343f; } .ColorScheme-ButtonBackground { color:#444a58; } .ColorScheme-Highlight { color:#5c87cc; } .ColorScheme-Text { color:#d3dae3; } .ColorScheme-NegativeText { color:#f44336; } .ColorScheme-PositiveText { color:#4caf50; } .ColorScheme-NeutralText { color:#ff9800; }</style>
 </defs>
 <path id="expander-bottom" class="ColorScheme-Text" d="m-18 23 2-2 2 2z" fill="currentColor"/>
 <path id="expander-top" class="ColorScheme-Text" d="m-18 17 2 2 2-2z" fill="currentColor"/>
 <path id="expander-right" class="ColorScheme-Text" d="m-13 18-2 2 2 2z" fill="currentColor"/>
 <path id="expander-left" class="ColorScheme-Text" d="m-19 18 2 2-2 2z" fill="currentColor"/>
 <g id="notification-empty" transform="translate(-18.01 17.9)">
  <rect x="40" y="-40" width="22" height="22" opacity=".001"/>
  <path class="ColorScheme-Text" d="m51-37a8 8 0 0 0-8 8 8 8 0 0 0 8 8 8 8 0 0 0 8-8 8 8 0 0 0-8-8zm0 2a6 6 0 0 1 6 6 6 6 0 0 1-6 6 6 6 0 0 1-6-6 6 6 0 0 1 6-6z" fill="currentColor"/>
 </g>
 <g id="notification-progress-active" transform="translate(-18,22)">
  <rect x="40" width="22" height="22" opacity=".001"/>
  <path class="ColorScheme-Highlight" d="m51 3c-4.4183 0-8 3.5817-8 8s3.5817 8 8 8 8-3.5817 8-8-3.5817-8-8-8z" fill="currentColor"/>
 </g>
 <g id="notification-progress-inactive" transform="translate(-18,-40)">
  <rect x="40" y="40" width="22" height="22" opacity=".001"/>
  <path class="ColorScheme-Text" d="m51 43c-4.4183 0-8 3.5817-8 8s3.5817 8 8 8 8-3.5817 8-8-3.5817-8-8-8z" fill="currentColor" opacity=".35"/>
 </g>
 <g id="notification-inactive">
  <rect width="22" height="22" opacity=".001"/>
  <path class="ColorScheme-Text" d="m11 3c0.55 0 1 0.45 1 1 0 0.03 0 0.07-0.01 0.1 2.29 0.46 4.01 2.47 4.01 4.9v4.5l2 2v0.5h-14v-0.5l2-2v-4.5c0-2.43 1.72-4.44 4.01-4.9-0.01-0.03-0.01-0.07-0.01-0.1 0-0.55 0.45-1 1-1zm1.73 14c-0.36 0.62-1.02 1-1.73 1s-1.37-0.38-1.73-1z" fill="currentColor"/>
 </g>
 <g id="notification-active" transform="translate(0,22)">
  <rect width="22" height="22" opacity=".001"/>
  <path class="ColorScheme-Text" d="m14.153 3.6992c-2.2133-0.74777-4.7058 0.1365-5.9205 2.2402l-2.25 3.8965-2.7324 0.7324-0.25 0.4336 1.7324 1.0001 8.6605 5 1.733 1 0.25-0.434-0.733-2.732 1.25-2.164 1-1.7326c0.545-0.943 0.731-1.9837 0.633-2.9863-0.152 0.0241-0.305 0.0488-0.463 0.0488-1.645 0-3-1.355-3-3 0-0.4362 0.099-0.8487 0.273-1.2219 0 0-0.181-0.0801-0.183-0.0808zm-7.0884 10.803c0 0.714 0.38 1.375 0.998 1.732 0.6183 0.356 1.3803 0.355 1.998-2e-3z" fill="currentColor"/>
  <path class="ColorScheme-Highlight" d="m19.063 4.998a2 2 0 0 1-2 2 2 2 0 0 1-2-2 2 2 0 0 1 2-2 2 2 0 0 1 2 2z" fill="currentColor"/>
 </g>
 <g id="notification-disabled" transform="translate(-.0098 -22.1)">
  <rect width="22" height="22" opacity=".001"/>
  <path class="ColorScheme-Text" d="m11 3c-0.55 0-1 0.45-1 1 0 0.03-2.344e-4 0.069609 0.0098 0.099609-0.4968 0.0998-0.95913 0.28543-1.3906 0.51953l7.3808 7.3809v-3c0-2.43-1.72-4.4404-4.0098-4.9004 0.01-0.03 0.009766-0.069609 0.009766-0.099609 0-0.55-0.45-1-1-1zm-5.5 0.5-1.5 1.5 2.3066 2.3066c-0.19402 0.52827-0.30664 1.0953-0.30664 1.6934v4.5l-2 2v0.5h11l1.5 1.5 1.5-1.5zm3.7695 13.5c0.36 0.62 1.0205 1 1.7305 1s1.3705-0.38 1.7305-1z" fill="currentColor" opacity=".35"/>
 </g>
</svg>
